icon-themes/breeze_svg/cmd/lc_masterlayouts.svg

<svg viewBox="0 0 24 24" xmlns="http://www.w3.org/2000/svg"><path d="m3.9980469 4.9941406v10.0000004h.0117187l-.0117187.011718 2.4667969 2.466797 2.53125-1.419922v-2.054687h-4v-8.0000001h14.0000002v2.0019531h.003906v2h1c.000358-2.667318.001953-2.3346355.001953-5.0019531h-.003906v-.0039063zm16.0019531 6.0058594-16 9h16zm-1 1.800781v6.199219h-11.0996094z" fill="#1d99f3"/></svg>

<svg xmlns="http://www.w3.org/2000/svg" viewBox="0 0 24 24">
  <path
     style="fill:#1d99f3"
     d="M 3.9980469 4.9941406 L 3.9980469 14.994141 L 4.0097656 14.994141 L 3.9980469 15.005859 L 6.4648438 17.472656 L 8.9960938 16.052734 L 8.9960938 13.998047 L 4.9960938 13.998047 L 4.9960938 5.9980469 L 18.996094 5.9980469 L 18.996094 8 L 19 8 L 19 10 L 20 10 C 20.000358 7.332682 20.001953 7.6653645 20.001953 4.9980469 L 19.998047 4.9980469 L 19.998047 4.9941406 L 3.9980469 4.9941406 z M 20 11 L 4 20 L 20 20 L 20 11 z M 19 12.800781 L 19 19 L 7.9003906 19 L 19 12.800781 z "
     />
</svg>
